symbols/web/straighten/materialsymbolsoutlined/straighten_wght600_20px.svg

<svg xmlns="http://www.w3.org/2000/svg" height="20" width="20"><path d="M3.583 15.292q-.937 0-1.614-.667T1.292 13V7q0-.958.677-1.625t1.614-.667h12.834q.937 0 1.614.667T18.708 7v6q0 .958-.677 1.625t-1.614.667Zm0-2.292h12.834V7h-1.959v3.25h-1.75V7h-1.75v3.25h-1.75V7h-1.75v3.25h-1.75V7H3.583v6Zm2.125-2.75h1.75Zm3.5 0h1.75Zm3.5 0h1.75ZM10 10Z"/></svg>

<svg xmlns="http://www.w3.org/2000/svg" height="20" width="20"><path d="M3.583 15.292Q2.646 15.292 1.969 14.625Q1.292 13.958 1.292 13V7Q1.292 6.042 1.969 5.375Q2.646 4.708 3.583 4.708H16.417Q17.354 4.708 18.031 5.375Q18.708 6.042 18.708 7V13Q18.708 13.958 18.031 14.625Q17.354 15.292 16.417 15.292ZM3.583 13H16.417Q16.417 13 16.417 13Q16.417 13 16.417 13V7Q16.417 7 16.417 7Q16.417 7 16.417 7H14.458V10.25H12.708V7H10.958V10.25H9.208V7H7.458V10.25H5.708V7H3.583Q3.583 7 3.583 7Q3.583 7 3.583 7V13Q3.583 13 3.583 13Q3.583 13 3.583 13ZM5.708 10.25H7.458ZM9.208 10.25H10.958ZM12.708 10.25H14.458ZM10 10Q10 10 10 10Q10 10 10 10Q10 10 10 10Q10 10 10 10Q10 10 10 10Q10 10 10 10Q10 10 10 10Q10 10 10 10Z"/></svg>
